dist/img/icons/marker.svg

<svg width="12" height="16" viewBox="0 0 12 16" fill="none" xmlns="http://www.w3.org/2000/svg">
<path fill-rule="evenodd" clip-rule="evenodd" d="M6 15.5518L6.43849 15.1689C10.1258 11.9492 12 9.13792 12 6.66675C12 3.16719 9.26863 0.666748 6 0.666748C2.73137 0.666748 0 3.16719 0 6.66675C0 9.13792 1.87421 11.9492 5.56151 15.1689L6 15.5518ZM6 13.7757C2.87107 10.9558 1.33333 8.56624 1.33333 6.66676C1.33333 3.93116 3.44274 2.00009 6 2.00009C8.55726 2.00009 10.6667 3.93116 10.6667 6.66676C10.6667 8.56624 9.12893 10.9558 6 13.7757ZM6 3.3334C7.84095 3.3334 9.33333 4.82579 9.33333 6.66674C9.33333 8.50769 7.84095 10.0001 6 10.0001C4.15905 10.0001 2.66667 8.50769 2.66667 6.66674C2.66667 4.82579 4.15905 3.3334 6 3.3334ZM4 6.66675C4 5.56218 4.89543 4.66675 6 4.66675C7.10457 4.66675 8 5.56218 8 6.66675C8 7.77132 7.10457 8.66675 6 8.66675C4.89543 8.66675 4 7.77132 4 6.66675Z" fill="#BEA4E1"/>
</svg>

<svg width="12" height="16" fill="none" xmlns="http://www.w3.org/2000/svg"><path fill-rule="evenodd" clip-rule="evenodd" d="M6 15.552l.438-.383C10.126 11.949 12 9.138 12 6.667c0-3.5-2.731-6-6-6s-6 2.5-6 6c0 2.47 1.874 5.282 5.562 8.502l.438.383zm0-1.776c-3.129-2.82-4.667-5.21-4.667-7.11C1.333 3.932 3.443 2 6 2s4.667 1.931 4.667 4.667c0 1.9-1.538 4.289-4.667 7.109zM6 3.333A3.333 3.333 0 116 10a3.333 3.333 0 010-6.667zM4 6.667a2 2 0 114 0 2 2 0 01-4 0z" fill="#BEA4E1"/></svg>
